icons/lines/card-tick.svg

<svg xmlns="http://www.w3.org/2000/svg" width="24" height="24" viewBox="0 0 24 24" fill="none" stroke="currentColor" stroke-width="2" stroke-linecap="round" stroke-linejoin="round" >
  <path d="M2 10H22" stroke-miterlimit="10"/>
  <path d="M11.5483 20.4998H6.43829C2.88829 20.4998 1.98828 19.6198 1.98828 16.1098V7.88977C1.98828 4.70977 2.72831 3.68977 5.51831 3.52977C5.79831 3.51977 6.10829 3.50977 6.43829 3.50977H17.5483C21.0983 3.50977 21.9983 4.38977 21.9983 7.89977V12.3098"/>
  <path d="M6 16H10" stroke-miterlimit="10"/>
  <path d="M22 18C22 18.75 21.79 19.46 21.42 20.06C20.73 21.22 19.46 22 18 22C16.54 22 15.27 21.22 14.58 20.06C14.21 19.46 14 18.75 14 18C14 15.79 15.79 14 18 14C20.21 14 22 15.79 22 18Z" stroke-miterlimit="10"/>
  <path d="M16.4414 17.9995L17.4314 18.9895L19.5614 17.0195"/>
  </svg>

<svg xmlns="http://www.w3.org/2000/svg" width="24" height="24" viewBox="0 0 24 24" fill="none" stroke="currentColor" stroke-width="2" stroke-linecap="round" stroke-linejoin="round">
  <path d="M11.548 20.5h-5.11c-3.55 0-4.45-.88-4.45-4.39V7.89c0-3.18.74-4.2 3.53-4.36a25 25 0 0 1 .92-.02h11.11c3.55 0 4.45.88 4.45 4.39v4.41" />
  <path d="m16.441 18 .99.99 2.13-1.97" />
  <path d="M2 10h20" />
  <path d="M6 16h4" />
  <circle cx="18" cy="17.995" r="4" />
</svg>
